X:1
T:Der Beichtzettel
T:Franz Abt
T:Hoffmann von Fallersleben
T:Der Beichtzettel
T:Op. 48, Nr. 5, bearb. für gem. Chor
T:CPDL - Creative Commons Attribution Non Commercial 3.0
T:CPDL - Creative Commons Attribution Non Commercial 3.0
T:CPDL - Creative Commons Attribution Non Commercial 3.0
T:CPDL - Creative Commons Attribution Non Commercial 3.0
T:CPDL - Creative Commons Attribution Non Commercial 3.0
T:CPDL - Creative Commons Attribution Non Commercial 3.0
C:Franz Abt
Z:Hoffmann von Fallersleben
Z:CPDL - Creative Commons Attribution Non Commercial 3.0
%%score [ ( 1 2 ) ( 3 4 ) ]
L:1/8
Q:1/4=90
M:4/4
K:F
V:1 treble nm="Sopran\nAlt"
V:2 treble 
V:3 bass nm="Tenor\nBass"
V:4 bass 
V:1
"^Andante"!p! A2 | A2 FG A2 DD | d3 B A2 z A | A2 GG F2 BB | A3 G F2 z F | E2 EE A2 =B2 | %6
w: Es|wollt' ein _ Mäd- chen zur|Kir- che geh'n und|be- ten und sin- gen und|Beich- te steh'n; sie|hat- te sich auf- ge-|
 c4 A2 A2 | e2 EE z2!pp! ^F^G | A4 A,2 z!p! A | A2 FG A2 DD | d3 B A2 z A | A2 GG F2 BB | %12
w: schrie- ben die|Tod- sün- den al- le|sie- ben. Und|als sie im Beicht- stuhl zu|knie'n be- gann, die|Trän' ihr her- ab von den|
 A3 G F2 z d | d^c de f2 ff | egfe d z z d | d^cde f2 ff | egfe d z z d | d2 dd f2 ed | %18
w: Wan- gen rann: "Ich|will _ auch _ bes- sern mein|Le- * * * ben, wollt'|mir _ doch die Sün- de ver-|ge- * * * ben, wollt'|mir doch die Sün- de ver-|
 ^c4 A2 z"^Solo" z | z8 | z8 | z8 | z4 z2 z"^Tutti" A | (3AAA (3AAA =B2 (3B z B | %24
w: ge- ben!"||||Sie|konn- te den Zet- tel nicht fin- den, sie|
 (3^ccc (3ccc d2 (3ddd | f3 f e2 d2 | !fermata!^c4 !fermata!A2 z2 || %27
w: konn- te den Zet- tel nicht fin- den, wuss- te|nichts von ih- ren|Sün- den.|
[K:D][Q:1/4=110]"^Allegro"!p! d2 FG A2 BB | .A2 .G2 .F2 z2 | d2 FG A2 BB | .A2 .G2 .F2 z2 | %31
w: Ich a- ber war's, der den|Zet- tel fand,|ich a- ber war's, der den|Zet- tel fand,|
 z ccc d2 .B2 | !>!^A2 c>c F2 z2 | z ccc d2 .B2 | !>!^A2 c>c F2 z2 | z4 z2 B2 | e2 d2 c2 BB | %37
w: was a- ber drin für|Tod- sün- de stand?|was a- ber drin für|Tod- sün- de stand?|das|kann ich kei- nem ver-|
 ^A4 BBBB | !>!d2 B z !>!d2"^dimin." B z | !fermata!^A4 !fermata!c2 !fermata!z!p! d | %40
w: kün- den, es sind ja|mei- ne, mei- ne|Sün- den! Die|
[Q:1/4=100]"^Etwas langsamer" d3 c B2 z!mf! B | A3 G F2 z A | f3 e d2!f! cB | A^ABG F2"^—" z | %44
w: ers- te war: Er|liebt mich sehr; die|zwei- te war: Er _|liebt * mich noch mehr|
[Q:1/4=110]"^Immer schneller" F | GABc (d4- |"^-" d2 c2) B2 z B | cdef (g4- | %48
w: so|ging es fort bis sie-|* * ben, und|im- mer, im- mer lie-|
"^-" g2 f2) e2 z!f! A | Af ed dc BA | (A2 d2) c2 z A | Af ed dc BA | (A2 d2) c2 z A | %53
w: * * ben, so|ging _ es _ fort _ bis _|sie- * ben, und|im- * mer, _ im- * mer *|lie- * ben, und|
 !>!d2"^string." A z !>!f2 d z | a4- agfe | (d2 f4 e2) | d2 z2 z2 d2 | !>!d2 A z !>!f2 d z | %58
w: im- mer, im- mer|lie- * * ben und|lie- * *|ben, und|im- mer, im- mer|
 a4 ^g2 =g2 | f2 d2 Bg fe | (d2 !>!f4 e2) | d!pp!AAA AAAA | A8 | AAAA AAAA | A8 | %65
w: lie- ben, und|im- mer, im- * mer _|lie- * *|ben so ging es im- mer fort bis|sie-|ben, und im- mer, im- mer, im- mer|lie-|
 A!f![Q:1/4=120]"^accellerando"cdc dcdc | dcdc dcde |!ff! f8- | f8- | f8 | d2 z2 z2 z!pp! A | %71
w: ben, und im- mer, im- mer, im- mer,|im- mer, im- mer, im- mer, im- mer|lie-|||ben ja|
 !fermata!A4 F z |] %72
w: lie- ben!|
V:2
 F2 | F2 DE F2 DD | B3 G F2 x F | E2 EE F2 EE | E3 E D2 x D | C2 CE E2 E2 | E4 ^D2 D2 | %7
w: |||||||
 E2 EE x2 ^D=D | ^C4 A,2 x F | F2 DE F2 DD | B3 G F2 x F | E2 EE F2 EE | E3 E D2 x F | %13
w: ||||||
 FE FG A2 AA | GBAG F x x F | FEFG A2 AA | GBAG F x x F | F2 FF ^G2 GG | A4 E2 x x | x8 | x8 | x8 | %22
w: |||||||||
 x4 x2 x E | (3EEE (3EEE F2 (3F z F | (3GGG (3GGG A2 (3AAA | ^G3 G G2 G2 | A4 E2 x2 || %27
w: |||||
[K:D] F2 DE F2 GG | E2 E2 D2 x2 | F2 DE F2 GG | E2 E2 DFFF | F6 F2 | F2 ^A>A FFFF | F6 F2 | %34
w: |||* * * was a- ber|drin *|* * * * was a- ber|drin *|
 F2 ^A>A F z x2 | x4 x2 =A2 | G2 G2 G2 GG | F4 FFFF | F2 F x F2 F x | F4 F2 x F | F3 F G2 x G | %41
w: |||||||
 F3 E D2 x F | A3 A A2 AG | G2 GE D2 x | x | x5 FFF | FFFF FF z2 | x5 BBB | BBAA GG x G | %49
w: ||||so ging es|im- mer fort bis sie- ben,|und im- mer|lie- ben, im- mer lie- ben, *|
 F2 A2 G2 G2 | FAGF GB AG | F2 A2 G2 G2 | FAGF GB AG | F2 F x A2 A x | =c4- cBBB | (A6 G2) | %56
w: |* * * * * * und _|_ _ _ _|* * * * * * und _|_ _|||
 F2 x2 x2 A2 | A2 A x A2 A x | B4 B2 A2 | A2 A2 GB B2 | (A4 G4) | FFFF FFFF | G8 | FFFF FFFF | G8 | %65
w: |||||||||
 FAAA AAAA | AAAA AAAA | A8- | A8- | A8 | A2 x2 x2 x F | F4 D x |] %72
w: |||||||
V:3
!p! A,2 | A,2 F,G, A,2 D,D | D3 D D2 z D | ^C2 CC D2 DD | ^C3 A, A,2 z2 | z2 z =C C2 DD | %6
w: |||||sie hat- te sich|
 C2 C2 C2 CC | C2 CC!pp! z2!pp! C=B, | A,4 A,2 z!p! A, | A,2 F,G, A,2 D,D | D3 D D2 z D | %11
w: auf- ge- schrie- ben die||sie- ben. *|||
 ^C2 CC D2 DD | ^C3 A, A,2 z2 | z4 z2 z D | ^C2 C2 DD, z2 | z4 z2 z D | ^C2 CC DD, z2 | %17
w: ||Sie|will sich bes- sern,|ver-|gebt ihr die Sün- de,|
 z2 z D D2 DE | E4 ^C2 z z | z8 | z8 | z8 | z4 z2 z ^C | (3^CCC (3CCC D2 (3D z D | %24
w: wollt' ihr doch ver-|ge- ben.||||||
 (3EEE (3EEE F2 (3FFF | D3 D E2 F2 | E4 ^C2 z2 ||[K:D]!p! D2 DD D2 DD | C2 C2 D2 z2 | D2 DD D2 DD | %30
w: ||||||
 C2 C2 D2 z2 | z EEE D2 D2 | !>!C2 F>F F2 z2 | z EEE D2 D2 | !>!C2 F>F F2 z2 | z4 z2 ^D2 | %36
w: ||||Tod- sün- de stand?||
 E2 E2 E2 EE | C4 DDDD | !>!B,2"^dimin." D z !>!B,2 D z | C4 ^A,2 z!p! =A, | (A,2 D)D D2 z!mf! D | %41
w: |||||
 C3 A, A,2 z D | D3 C D2!f! D2 | C2 CA, A,2 z | z | z4 z EEE | EEEE DD z2 | z4 z EEE | %48
w: |||||||
 EEED CC z!f! E | D2 D2 E2 E2 | DFED CE DC | D2 D2 E2 E2 | DFED EG FE | D2"^string." D z D2 F z | %54
w: ||||||
 F4- FG^DE | (F2 =D2 C4) | D2 z2 z2 F2 | F2 F z F2 F z | F4 E2 E2 | =D2 D2 DE ^DE | (F2 =D2 C4) | %61
w: |||||||
 D!pp!DDD DDDD | C8 | DDDD DDDD | C8 | D!f!EFE FEFE | FEFE FEFG |!ff! F8- | F8- | F8 | %70
w: |||||||||
 F2 z2 z2 z!pp! A, | A,4 F, z |] %72
w: ||
V:4
 F,2 | F,2 D,E, F,2 D,D, | G,,2 B,,2 D,2 z2 | z2 z A, D,2 G,G, | A,2 A,,2 D,2 z D, | %5
w: |||und sin- gen und|Beich- te steh'n; sie|
 A,2 A,A, A,2 ^G,2 | A,4 F,2 F,2 | E,2 E,E, E,2 E,2 | A,4 A,,2 x F, | F,2 D,E, F,2 D,D, | %10
w: hat- te sich auf- ge-|schrie- ben die|Tod- sün- den al- le|||
 G,,2 B,,2 D,2 z2 | z2 z A, D,2 G,G, | A,2 A,,A,, D,2 x2 | x4 x2 x D, | A,2 A,2 D,D, x2 | %15
w: |die Trän' von den|Wan- gen ihr rann.|||
 x4 x2 x D, | A,2 A,A, D,D, x2 | x2 x B, B,2 B,B, | A,4 A,2 x D | D2 DD D2 F,G, | A,3 D, D,2 z D, | %21
w: |||* * "Eh'|ich dir die Sün- de ver-|ge- ben kann, so|
 F,2 F,F, E,2 D,D, | A,3 A,, A,,2 z z | z2 (3z z A, (3A,A,A, (3A,A,A, | A,2 A,2 z2 (3z A,A, | %25
w: zeig' mir zu- erst dei- ne|Sün- den an!"|Sie konn- te den Zet- tel nicht|fin- den, * *|
 A,3 A, A,2 A,2 | !fermata!A,4 !fermata!A,2 x2 ||[K:D] D,2 D,D, D,2 G,G, | A,2 A,2 D,2 A,2 | %29
w: |||* * * ja,|
 D2 D,D, D,2 G,G, | A,2 A,2 D,2 z2 | z ^A,A,A, B,2 B,2 | F,2 F,>F, F,2 x2 | x ^A,A,A, B,2 B,2 | %34
w: |||||
 F,2 F,>F, F,2 F,2 | B,2 A,2 G,2 F,F, | E,4 E,2 E,2 | E,2 E,2 D,2 B,,2 | F,4 F,4 | %39
w: * * * * das|kann ich kei- nem ver-|kün- den, es|sind ja mei- ne,|mei- ne|
 !fermata!F,4 !fermata!F,2 !fermata!x D, | D,3 D, G,2 x G, | A,3 A, D,2 x D, | D,3 E, F,2 G,2 | %43
w: ||||
 A,2 A,A, D,2 x | x | x4 x ^A,A,A, | ^A,A,A,A, B,B, x2 | x4 x E,E,E, | E,E,E,E, A,A, x A, | %49
w: ||||||
 D,2 F,2 A,2 B,C | D4 A,2 z A, | D,2 F,2 A,2 B,C | D4 A,2 z A, | !>!D,2 D, x !>!D,2 D, x | %54
w: |||||
 ^D,4- D,E,F,G, | A,8 | D,D,D,D, D,D,D,D, | !>!D2 D x !>!D2 D x | ^D4 E2 C2 | D2 F,2 G,E, F,G, | %60
w: |lie-|ben, und im- mer, im- mer, im- mer,||||
 (A,4 A,,4) | D, z z2 z4 | z!mf! A,CB, A,G,F,E, | (D,2 F,2) A,,2 z2 | z A,CB, A,G,F,E, | %65
w: ||so ging es im- mer fort bis|sie- * ben,|und im- mer, im- mer, im- mer|
 D,A,DA, DA,DA, | DA,DA, DA,DA, | D2 D,D CB,A,G, | F,>G, F,B, A,G,F,E, | (D,7 F,/E,/) | %70
w: lie- ben, * * * * * *||lie- ben, so ging es fort bis|sie- * ben, und im- mer, im- mer|lie- * *|
 D,2 x2 x2 x F, | !fermata!F,4 D, x |] %72
w: ben, *||

